X:91
T:Gallagher's Frolics
R:jig
Z:Transcribed by Dave Marshall
M:6/8
K:Edor
|:~E3 GFE|BAB dBA|~B3 BAB|GFG AFD|
~E3 GFE|~B3 dBA|BAG FGA| GED E3:|
|:e2f gfe|g2a bge|~d3 fed|fag fed|
e2f gfe|dfe dBA|BAG FGA| GED E3:|
